build/images/last-section/Vectorls-icon-14.svg

<svg width="81" height="77" viewBox="0 0 81 77" fill="none" xmlns="http://www.w3.org/2000/svg">
<path d="M32.5604 55.3209L21.3213 65.5207M31.7982 63.5512L28.3014 67.4967M18.4797 40.2574C18.4797 47.3972 14.7889 53.1851 10.2359 53.1851C5.68303 53.1851 1.99219 47.3972 1.99219 40.2574C1.99219 33.1177 5.68303 27.3297 10.2359 27.3297C14.7889 27.3297 18.4797 33.1177 18.4797 40.2574ZM37.6551 16.1253C37.6551 23.537 33.6858 29.5454 28.7895 29.5454C23.8932 29.5454 19.9239 23.537 19.9239 16.1253C19.9239 8.7136 23.8932 2.70526 28.7895 2.70526C33.6858 2.70526 37.6551 8.7136 37.6551 16.1253ZM63.2222 16.458C63.2222 24.5017 58.7919 31.0224 53.327 31.0224C47.862 31.0224 43.4317 24.5017 43.4317 16.458C43.4317 8.41425 47.862 1.89355 53.327 1.89355C58.7919 1.89355 63.2222 8.41425 63.2222 16.458ZM76.1097 31.9315C79.5397 33.7145 79.9698 39.6379 77.0704 45.1618C74.1709 50.6858 69.0398 53.7185 65.6097 51.9355C62.1797 50.1526 61.7495 44.2291 64.649 38.7052C67.5485 33.1812 72.6796 30.1486 76.1097 31.9315ZM25.7006 74.5161C25.7006 74.5161 38.6847 68.7609 55.179 73.079C55.179 73.079 64.4591 75.1349 67.1335 69.1801C69.8079 63.2252 62.6004 59.7455 58.8897 58.5345C55.179 57.3236 50.6459 49.712 50.6459 49.712C50.6459 49.712 43.8396 33.9167 31.4706 46.6315C19.1015 59.3463 21.1541 57.0774 16.835 59.9717C12.5159 62.8659 12.6964 77.4037 25.7006 74.5161Z" stroke="#0B8E42" stroke-width="3" stroke-linecap="round" stroke-linejoin="round"/>
</svg>

<svg width="81" height="77" fill="none" xmlns="http://www.w3.org/2000/svg"><path d="M32.56 55.32l-11.239 10.2m10.477-1.969l-3.497 3.946m-9.821-27.24c0 7.14-3.691 12.928-8.244 12.928s-8.244-5.788-8.244-12.928c0-7.14 3.691-12.927 8.244-12.927s8.244 5.788 8.244 12.927zm19.175-24.132c0 7.412-3.97 13.42-8.866 13.42-4.896 0-8.865-6.008-8.865-13.42 0-7.411 3.97-13.42 8.866-13.42 4.896 0 8.865 6.009 8.865 13.42zm25.567.333c0 8.044-4.43 14.564-9.895 14.564s-9.895-6.52-9.895-14.564 4.43-14.564 9.895-14.564 9.895 6.52 9.895 14.564zM76.11 31.932c3.43 1.783 3.86 7.706.96 13.23s-8.03 8.556-11.46 6.773c-3.43-1.782-3.86-7.706-.961-13.23 2.9-5.524 8.03-8.556 11.46-6.773zM25.7 74.516s12.985-5.755 29.479-1.437c0 0 9.28 2.056 11.954-3.899 2.675-5.955-4.533-9.435-8.243-10.646-3.711-1.21-8.244-8.822-8.244-8.822s-6.806-15.795-19.175-3.08C19.1 59.346 21.154 57.077 16.835 59.972c-4.32 2.894-4.139 17.432 8.866 14.544z" stroke="#0B8E42" stroke-width="3" stroke-linecap="round" stroke-linejoin="round"/></svg>
